public/assets/routes_avatar/searchDeclare.svg

<?xml version="1.0" encoding="UTF-8"?>
<svg width="60px" height="60px" viewBox="0 0 60 60" version="1.1" xmlns="http://www.w3.org/2000/svg" xmlns:xlink="http://www.w3.org/1999/xlink">
    <!-- Generator: Sketch 49.3 (51167) - http://www.bohemiancoding.com/sketch -->
    <title>纳税申报-查询申报</title>
    <desc>Created with Sketch.</desc>
    <defs>
        <path d="M23.33125,8.25234375 L14.65,0.582421875 C14.509375,0.459375 14.35625,0.35546875 14.190625,0.26796875 C14.146875,0.24609375 14.103125,0.22421875 14.05625,0.205078125 C14.028125,0.19140625 13.996875,0.18046875 13.96875,0.16953125 C13.6875,0.06015625 13.378125,0 13.0625,0 L2.28125,0 C1.0375,0 0,0.88046875 0,1.96875 L0,26.03125 C0,27.1195312 1.0375,28 2.28125,28 L21.75,28 C22.99375,28 23.96875,27.1195312 23.96875,26.03125 L23.96875,9.63867188 C23.96875,9.11914062 23.75,8.62148437 23.33125,8.25234375 Z M14.21875,3.01875 L20.49375,8.53125 L14.21875,8.53125 L14.21875,3.01875 Z M21.71875,26.03125 L2.25,26.03125 L2.25,1.96875 L11.96875,1.96875 L11.96875,8.53125 C11.96875,9.61953125 13.00625,10.5 14.25,10.5 L21.71875,10.5 L21.71875,26.03125 Z M14.25,13.234375 C14.25,12.6902344 13.746875,12.25 13.125,12.25 L5.125,12.25 C4.503125,12.25 4,12.6902344 4,13.234375 C4,13.7785156 4.503125,14.21875 5.125,14.21875 L13.125,14.21875 C13.746875,14.21875 14.25,13.7785156 14.25,13.234375 Z M20.25,17.609375 C20.25,17.0652344 19.746875,16.625 19.125,16.625 L5.125,16.625 C4.503125,16.625 4,17.0652344 4,17.609375 C4,18.1535156 4.503125,18.59375 5.125,18.59375 L19.125,18.59375 C19.746875,18.59375 20.25,18.1535156 20.25,17.609375 Z M16.25,21.984375 C16.25,21.4402344 15.746875,21 15.125,21 L5.125,21 C4.503125,21 4,21.4402344 4,21.984375 C4,22.5285156 4.503125,22.96875 5.125,22.96875 L15.125,22.96875 C15.746875,22.96875 16.25,22.5285156 16.25,21.984375 Z" id="path-1"></path>
    </defs>
    <g id="icon" stroke="none" stroke-width="1" fill="none" fill-rule="evenodd">
        <g id="纳税申报-查询申报">
            <circle id="Oval-Copy" fill="#49A7FF" cx="30" cy="30" r="30"></circle>
            <g id="Group-61" transform="translate(15.000000, 15.000000)">
                <g id="Shape" fill-rule="nonzero">
                    <use fill="#FFFFFF" fill-rule="evenodd" xlink:href="#path-1"></use>
                    <path stroke="#49A7FF" stroke-width="0.3" d="M23.2320588,8.36486536 L23.231934,8.36475519 L14.5512243,0.695308379 C14.4212734,0.581601311 14.2782249,0.483894068 14.123543,0.402132829 C14.0612739,0.370998305 14.0339523,0.357996558 13.9906711,0.339983303 C13.9764503,0.333412818 13.9764503,0.333412818 13.9578228,0.325958934 C13.937501,0.318162732 13.937501,0.318162732 13.9143831,0.309331951 C13.6461513,0.205019613 13.3549591,0.15 13.0625,0.15 L2.28125,0.15 C1.10972686,0.15 0.15,0.973946296 0.15,1.96875 L0.15,26.03125 C0.15,27.0260537 1.10972686,27.85 2.28125,27.85 L21.75,27.85 C22.9085125,27.85 23.81875,27.0379559 23.81875,26.03125 L23.81875,9.63867188 C23.81875,9.15416299 23.6124083,8.70015476 23.2320588,8.36486536 Z M14.06875,2.68731713 L20.8917756,8.68125 L14.21875,8.68125 L14.06875,8.53125 L14.06875,2.68731713 Z M21.71875,26.18125 L2.25,26.18125 L2.1,26.03125 L2.1,1.96875 L2.25,1.81875 L11.96875,1.81875 L12.11875,1.96875 L12.11875,8.53125 C12.11875,9.5260537 13.0784769,10.35 14.25,10.35 L21.71875,10.35 L21.86875,10.5 L21.86875,26.03125 L21.71875,26.18125 Z M14.1,13.234375 C14.1,12.777863 13.6681565,12.4 13.125,12.4 L5.125,12.4 C4.58184345,12.4 4.15,12.777863 4.15,13.234375 C4.15,13.690887 4.58184345,14.06875 5.125,14.06875 L13.125,14.06875 C13.6681565,14.06875 14.1,13.690887 14.1,13.234375 Z M20.1,17.609375 C20.1,17.152863 19.6681565,16.775 19.125,16.775 L5.125,16.775 C4.58184345,16.775 4.15,17.152863 4.15,17.609375 C4.15,18.065887 4.58184345,18.44375 5.125,18.44375 L19.125,18.44375 C19.6681565,18.44375 20.1,18.065887 20.1,17.609375 Z M16.1,21.984375 C16.1,21.527863 15.6681565,21.15 15.125,21.15 L5.125,21.15 C4.58184345,21.15 4.15,21.527863 4.15,21.984375 C4.15,22.440887 4.58184345,22.81875 5.125,22.81875 L15.125,22.81875 C15.6681565,22.81875 16.1,22.440887 16.1,21.984375 Z"></path>
                </g>
                <circle id="Oval-2" fill="#49A7FF" cx="22.5" cy="22.5" r="7.5"></circle>
                <path d="M23,29.6923077 C19.3039405,29.6923077 16.3076923,26.6960595 16.3076923,23 C16.3076923,19.3039405 19.3039405,16.3076923 23,16.3076923 C26.6960595,16.3076923 29.6923077,19.3039405 29.6923077,23 C29.6923077,26.6960595 26.6960595,29.6923077 23,29.6923077 Z M23,28.3076923 C25.9313575,28.3076923 28.3076923,25.9313575 28.3076923,23 C28.3076923,20.0686425 25.9313575,17.6923077 23,17.6923077 C20.0686425,17.6923077 17.6923077,20.0686425 17.6923077,23 C17.6923077,25.9313575 20.0686425,28.3076923 23,28.3076923 Z" id="Oval-3" fill="#FFFFFF" fill-rule="nonzero"></path>
                <path d="M25.9296875,25.5881696 L24.5522321,24.2113839 C24.9212054,23.7660714 25.1428571,23.1948661 25.1428571,22.5714286 C25.1428571,21.1511161 23.9917411,20 22.5714286,20 C21.1511161,20 20,21.1511161 20,22.5714286 C20,23.9917411 21.1511161,25.1428571 22.5714286,25.1428571 C23.1948661,25.1428571 23.7660714,24.9212054 24.2113839,24.5522321 L25.5888393,25.9296875 C25.6357143,25.9765625 25.6973214,26 25.7595982,26 C25.821875,26 25.8828125,25.9765625 25.9303571,25.9296875 C26.0234375,25.8352679 26.0234375,25.6825893 25.9296875,25.5881696 Z M23.384375,24.4966518 C23.1272321,24.6058036 22.8540179,24.6607143 22.5714286,24.6607143 C22.2888393,24.6607143 22.015625,24.6058036 21.7584821,24.4966518 C21.5100446,24.3915179 21.2863839,24.2408482 21.0941964,24.0486607 C20.9020089,23.8564732 20.7513393,23.6328125 20.6462054,23.384375 C20.5370536,23.1272321 20.4821429,22.8540179 20.4821429,22.5714286 C20.4821429,22.2888393 20.5370536,22.015625 20.6462054,21.7584821 C20.7513393,21.5100446 20.9020089,21.2863839 21.0941964,21.0941964 C21.2863839,20.9020089 21.5100446,20.7513393 21.7584821,20.6462054 C22.015625,20.5370536 22.2888393,20.4821429 22.5714286,20.4821429 C22.8540179,20.4821429 23.1272321,20.5370536 23.384375,20.6462054 C23.6328125,20.7513393 23.8564732,20.9020089 24.0486607,21.0941964 C24.2408482,21.2863839 24.3915179,21.5100446 24.4966518,21.7584821 C24.6058036,22.015625 24.6607143,22.2888393 24.6607143,22.5714286 C24.6607143,22.8540179 24.6058036,23.1272321 24.4966518,23.384375 C24.3915179,23.6328125 24.2408482,23.8564732 24.0486607,24.0486607 C23.8564732,24.2408482 23.6334821,24.3915179 23.384375,24.4966518 Z" id="Shape" stroke="#FFFFFF" stroke-width="0.5" fill="#FFFFFF" fill-rule="nonzero"></path>
            </g>
        </g>
    </g>
</svg>

<svg width="60" height="60" xmlns="http://www.w3.org/2000/svg" xmlns:xlink="http://www.w3.org/1999/xlink"><defs><path d="M23.331 8.252L14.65.582a2.385 2.385 0 0 0-.46-.314c-.043-.022-.087-.044-.134-.063-.028-.014-.06-.025-.087-.035a2.51 2.51 0 0 0-.906-.17H2.28C1.037 0 0 .88 0 1.969V26.03C0 27.12 1.038 28 2.281 28H21.75c1.244 0 2.219-.88 2.219-1.969V9.64c0-.52-.219-1.018-.638-1.387zM14.22 3.02l6.275 5.512h-6.275V3.02zm7.5 23.012H2.25V1.97h9.719V8.53c0 1.089 1.037 1.969 2.281 1.969h7.469v15.531zM14.25 13.234c0-.544-.503-.984-1.125-.984h-8c-.622 0-1.125.44-1.125.984 0 .545.503.985 1.125.985h8c.622 0 1.125-.44 1.125-.985zm6 4.375c0-.544-.503-.984-1.125-.984h-14c-.622 0-1.125.44-1.125.984 0 .545.503.985 1.125.985h14c.622 0 1.125-.44 1.125-.985zm-4 4.375c0-.544-.503-.984-1.125-.984h-10C4.503 21 4 21.44 4 21.984c0 .545.503.985 1.125.985h10c.622 0 1.125-.44 1.125-.985z" id="a"/></defs><g fill="none" fill-rule="evenodd"><circle fill="#49A7FF" cx="30" cy="30" r="30"/><g transform="translate(15 15)"><g fill-rule="nonzero"><use fill="#FFF" fill-rule="evenodd" xlink:href="#a"/><path stroke="#49A7FF" stroke-width=".3" d="M23.232 8.365h0l-8.68-7.67A2.23 2.23 0 0 0 13.99.34l-.033-.014-.044-.017a2.36 2.36 0 0 0-.851-.159H2.28C1.11.15.15.974.15 1.969V26.03c0 .995.96 1.819 2.131 1.819H21.75c1.159 0 2.069-.812 2.069-1.819V9.64c0-.485-.207-.939-.587-1.274zM14.07 2.687l6.823 5.994h-6.673l-.15-.15V2.687zm7.65 23.494H2.25l-.15-.15V1.97l.15-.15h9.719l.15.15V8.53c0 .995.96 1.819 2.131 1.819h7.469l.15.15v15.531l-.15.15zM14.1 13.234c0-.456-.432-.834-.975-.834h-8c-.543 0-.975.378-.975.834 0 .457.432.835.975.835h8c.543 0 .975-.378.975-.835zm6 4.375c0-.456-.432-.834-.975-.834h-14c-.543 0-.975.378-.975.834 0 .457.432.835.975.835h14c.543 0 .975-.378.975-.835zm-4 4.375c0-.456-.432-.834-.975-.834h-10c-.543 0-.975.378-.975.834 0 .457.432.835.975.835h10c.543 0 .975-.378.975-.835z"/></g><circle fill="#49A7FF" cx="22.5" cy="22.5" r="7.5"/><path d="M23 29.692a6.692 6.692 0 1 1 0-13.384 6.692 6.692 0 0 1 0 13.384zm0-1.384a5.308 5.308 0 1 0 0-10.616 5.308 5.308 0 0 0 0 10.616z" fill="#FFF" fill-rule="nonzero"/><path d="M25.93 25.588l-1.378-1.377a2.571 2.571 0 1 0-.34.34l1.377 1.379a.241.241 0 0 0 .342 0 .243.243 0 0 0-.001-.342zm-2.546-1.091c-.257.109-.53.164-.813.164a2.067 2.067 0 0 1-1.477-.612 2.084 2.084 0 0 1 0-2.955 2.084 2.084 0 0 1 2.955 0 2.084 2.084 0 0 1 0 2.955 2.077 2.077 0 0 1-.665.448z" stroke="#FFF" stroke-width=".5" fill="#FFF" fill-rule="nonzero"/></g></g></svg>
